assets/svg/1f51f.svg

<svg xmlns="http://www.w3.org/2000/svg" viewBox="0 0 64 64" enable-background="new 0 0 64 64"><path fill="#d0d0d0" d="m62 52c0 5.523-4.478 10-10 10h-40c-5.522 0-10-4.477-10-10v-40c0-5.523 4.478-10 10-10h40c5.522 0 10 4.477 10 10v40"/><path fill="#fff" d="M57,45.666C57,50.27,53.269,54,48.667,54H15.333C10.731,54,7,50.27,7,45.666V12.334
			C7,7.73,10.731,4,15.333,4h33.334C53.269,4,57,7.73,57,12.334V45.666z"/><g fill="#9aa0a5"><path d="m26 45h-6.107v-23.02c-2.232 2.088-4.863 3.631-7.893 4.631v-5.543c1.594-.521 3.326-1.512 5.195-2.967 1.871-1.457 3.152-3.156 3.85-5.098h4.955v32"/><path d="m41 13c3.281 0 5.848 1.084 7.695 3.25 2.203 2.564 3.305 6.816 3.305 12.762 0 5.928-1.109 10.188-3.328 12.779-1.832 2.139-4.391 3.209-7.672 3.209-3.297 0-5.955-1.174-7.973-3.516-2.02-2.345-3.03-6.525-3.03-12.537 0-5.9 1.109-10.148 3.328-12.74 1.834-2.139 4.391-3.207 7.672-3.207m0 4.979c-.785 0-1.486.232-2.104.695-.615.465-1.094 1.295-1.432 2.492-.447 1.551-.67 4.168-.67 7.846 0 3.676.199 6.201.6 7.576s.906 2.291 1.514 2.746c.609.455 1.307.684 2.092.684s1.486-.23 2.104-.691c.615-.465 1.094-1.295 1.432-2.494.447-1.539.672-4.145.672-7.82 0-3.678-.201-6.203-.602-7.58-.4-1.375-.904-2.293-1.514-2.758-.61-.464-1.307-.696-2.092-.696"/></g></svg>

<svg xmlns="http://www.w3.org/2000/svg" width="64" height="64" viewBox="0 0 64 64"><path fill="#D0D0D0" d="M62 52c0 5.523-4.478 10-10 10H12C6.478 62 2 57.523 2 52V12C2 6.477 6.478 2 12 2h40c5.522 0 10 4.477 10 10v40z"/><path fill="#FFF" d="M57 45.666A8.333 8.333 0 0 1 48.667 54H15.333A8.333 8.333 0 0 1 7 45.666V12.334A8.333 8.333 0 0 1 15.333 4h33.334A8.333 8.333 0 0 1 57 12.334v33.332z"/><g fill="#9AA0A5"><path d="M26 45h-6.107V21.977c-2.232 2.088-4.863 3.631-7.893 4.631v-5.543c1.594-.521 3.326-1.512 5.195-2.967 1.871-1.457 3.152-3.156 3.85-5.098H26v32zM41 13c3.281 0 5.848 1.084 7.695 3.25C50.898 18.814 52 23.066 52 29.012c0 5.928-1.109 10.188-3.328 12.779C46.84 43.93 44.281 45 41 45c-3.297 0-5.955-1.174-7.973-3.516C31.01 39.139 30 34.959 30 28.947c0-5.9 1.109-10.148 3.328-12.74C35.162 14.068 37.719 13 41 13zm0 4.979c-.785 0-1.486.232-2.104.695-.615.465-1.094 1.295-1.432 2.492-.447 1.551-.67 4.168-.67 7.846 0 3.676.199 6.201.6 7.576s.906 2.291 1.514 2.746c.609.455 1.307.684 2.092.684s1.486-.23 2.104-.691c.615-.465 1.094-1.295 1.432-2.494.447-1.539.672-4.145.672-7.82 0-3.678-.201-6.203-.602-7.58-.4-1.375-.904-2.293-1.514-2.758A3.363 3.363 0 0 0 41 17.979z"/></g></svg>
